svgs/regular/mask-ventilator.svg

<svg xmlns="http://www.w3.org/2000/svg" viewBox="0 0 640 512"><!--! Font Awesome Pro 6.4.2 by @fontawesome - https://fontawesome.com License - https://fontawesome.com/license (Commercial License) Copyright 2023 Fonticons, Inc. --><path d="M176 300.8c0 26.7 8.9 52.3 24.7 73.6c-.5-4.3-.7-8.7-.7-13.1c0-31.9 12.4-72.4 31.4-104.9c9.6-16.5 21.7-32.1 36-43.8C281.7 200.9 299.5 192 320 192c20.4 0 38.2 8.9 52.4 20.7s26.3 27.3 36 43.8c19.1 32.5 31.6 73 31.6 104.9c0 4.3-.2 8.5-.6 12.7C455 352.8 464 327.4 464 300.8c0-38.2-17.9-96.6-49.1-145.7C382.2 103.7 346.7 80 320 80c-27.3 0-62.7 23.8-95.2 75C193.7 204.1 176 262.5 176 300.8zm72 60.5c0 21.8 9.2 41.2 24 54.5v58.6c-45.3-10.8-84-36.5-109.8-71.1L90.9 385.5C37.5 372.1 0 324.1 0 269V184c0-30.9 25.1-56 56-56H185.1C219.8 73.8 267.4 32 320 32c52.1 0 99.7 41.8 134.5 96H584c30.9 0 56 25.1 56 56v85c0 55.1-37.5 103.1-90.9 116.4l-71.6 17.9c-26 34.6-64.7 60.2-109.5 71V415.7c14.7-13.3 24-32.6 24-54.3c0-21.6-9.2-53.7-25-80.6c-7.8-13.2-16.4-23.9-25.1-31.1s-16-9.7-21.9-9.7c-6 0-13.5 2.6-22.1 9.7c-8.7 7.1-17.3 17.8-25.1 31c-15.7 26.8-24.8 59-24.8 80.6zm257.6-14.5l31.8-8c32.1-8 54.5-36.8 54.5-69.9V184c0-4.4-3.6-8-8-8H480.7c19.8 43.2 31.3 88.7 31.3 124.8c0 16-2.2 31.4-6.4 46.1zM159.1 176H56c-4.4 0-8 3.6-8 8v85c0 33 22.5 61.8 54.5 69.9l31.8 7.9c-4.1-14.7-6.3-30.1-6.3-46c0-36.1 11.4-81.6 31.1-124.8zM296 328c0-13.3 10.7-24 24-24s24 10.7 24 24V512H296V328z"/></svg>

<svg xmlns="http://www.w3.org/2000/svg" viewBox="0 0 640 512"><!--! Font Awesome Pro 6.1.1 by @fontawesome - https://fontawesome.com License - https://fontawesome.com/license (Commercial License) Copyright 2022 Fonticons, Inc. --><path d="M248 361.3C248 383.1 257.2 402.5 272 415.8V474.4C226.7 463.7 188 437.1 162.2 403.3L90.9 385.5C37.48 372.1 0 324.1 0 269V184C0 153.1 25.07 128 56 128H185.1C219.8 73.8 267.4 32 320 32C372.1 32 419.7 73.8 454.5 128H584C614.9 128 640 153.1 640 184V269C640 324.1 602.5 372.1 549.1 385.5L477.5 403.4C451.5 437.1 412.8 463.5 368 474.3V415.7C382.7 402.4 392 383.1 392 361.3C392 339.8 382.8 307.6 367 280.8C359.2 267.6 350.6 256.9 341.9 249.7C333.2 242.6 325.9 239.1 319.1 239.1C313.1 239.1 306.5 242.6 297.9 249.7C289.2 256.9 280.6 267.6 272.8 280.7C257.1 307.5 247.1 339.7 247.1 361.3L248 361.3zM200.7 374.4C200.2 370.1 200 365.8 200 361.3C200 329.5 212.4 288.1 231.4 256.5C241.1 240 253.1 224.4 267.4 212.7C281.7 200.9 299.5 192 320 192C340.4 192 358.2 200.9 372.4 212.7C386.7 224.4 398.7 240 408.4 256.4C427.5 288.9 440 329.4 440 361.3C440 365.6 439.8 369.9 439.4 374C455 352.8 464 327.4 464 300.8C464 262.6 446.1 204.2 414.9 155.1C382.2 103.7 346.7 79.1 320 79.1C292.7 79.1 257.3 103.8 224.8 154.1C193.7 204.1 176 262.5 176 300.8C176 327.5 184.9 353.1 200.7 374.4L200.7 374.4zM505.6 346.9L537.5 338.9C569.5 330.9 592 302.1 592 269V184C592 179.6 588.4 176 584 176H480.7C500.4 219.2 512 264.7 512 300.8C512 316.8 509.8 332.2 505.6 346.9V346.9zM56 176C51.58 176 48 179.6 48 184V269C48 302.1 70.49 330.9 102.5 338.9L134.3 346.8C130.2 332.2 127.1 316.7 127.1 300.8C127.1 264.7 139.4 219.2 159.1 176H56zM296 328C296 314.7 306.7 304 320 304C333.3 304 344 314.7 344 328V512H296V328z"/></svg>
